X:675
T:Reel 675
M:4/4
K:Amix
L:1/8
ED|CA,B,G, E,D,E,>D,| (3G,G,G, A,G, DB,CD|CA,B,G, E,F,G,A,|B,DEF G2FD|CA,G,A, E,F,G,F,|E,F,G,C DG,D,F|EAFD CDB,D|CA,B,G, A,2z2|EAAG A2EA|GFED CDEF|GABG AGFA|BGAF GFED|CDEF G2FG|AGBA GEEF|GFED CA,B,A,|E,F,G,A, A,2B,D|
